X:29
T:Merry Fiddler (1st Version), The
N:Written for Cath Chandler - thank you
C:Taz Tarry, May 2010. Revised April 2020
M:6/8
L:1/8
Q:3/8=90
K:D
|:G>Bd g>ag |f>ed d>BG|B>=c^c d>cd|dBc def|
G>AB G>AB|G3 E3|g>fe f>ed|Ace d3:|
|:aAA aAA|a2a a>gf|gBB gBB|g2 g g>fe|
aAA aAA|a2a a>gf|g>fe a>gf|Ace d3:|

